X: 172
T: Traditional Jig
T: Jig, D
L: 1/16
M: 6/8
K: D
|: e2| f4g2 f2e2d2| A4B2 A2F2A2| f2g2f2 f2e2d2| a6 a4f2| g2a2g2 g2f2e2| f2g2f2 f2e2d2| e2f2e2 d2c2B2| A4A2 A4:| 
|: B2| A2F2A2 d2A2F2| A4A2 A4F2| G2F2G2 B2A2F2| E6 E2c2d2| e6 e4d2| c6 c4B2| A2B2A2 A2B2c2| d6 d4:| 
D: Kinnon and Betty Beaton, Saturday Night Lively, KB20M98
B: DunGreen Collection
